docs/img/vax/aon.svg

<svg xmlns="http://www.w3.org/2000/svg" xmlns:xlink="http://www.w3.org/1999/xlink" width="1920" zoomAndPan="magnify" viewBox="0 0 1440 225" height="300" preserveAspectRatio="xMidYMid meet" version="1.0"><defs><clipPath id="c0deb1c5ac"><path d="M 22.5 56.605469 L 134.292969 56.605469 L 134.292969 168.394531 L 22.5 168.394531 Z M 22.5 56.605469 " clip-rule="nonzero"/></clipPath><clipPath id="d0aa2482e0"><path d="M 22.5 56.605469 L 134.25 56.605469 L 134.25 168.355469 L 22.5 168.355469 Z M 22.5 56.605469 " clip-rule="nonzero"/></clipPath><clipPath id="6a9f8d991e"><path d="M 164.832031 56.605469 L 276.621094 56.605469 L 276.621094 168.394531 L 164.832031 168.394531 Z M 164.832031 56.605469 " clip-rule="nonzero"/></clipPath><clipPath id="4691fc8387"><path d="M 164.832031 56.605469 L 276.582031 56.605469 L 276.582031 168.355469 L 164.832031 168.355469 Z M 164.832031 56.605469 " clip-rule="nonzero"/></clipPath><clipPath id="d4c60c41a9"><path d="M 307.578125 56.605469 L 419.371094 56.605469 L 419.371094 168.394531 L 307.578125 168.394531 Z M 307.578125 56.605469 " clip-rule="nonzero"/></clipPath><clipPath id="e4fea7edc4"><path d="M 307.578125 56.605469 L 419.328125 56.605469 L 419.328125 168.355469 L 307.578125 168.355469 Z M 307.578125 56.605469 " clip-rule="nonzero"/></clipPath><clipPath id="00c889c064"><path d="M 449.835938 56.605469 L 561.628906 56.605469 L 561.628906 168.394531 L 449.835938 168.394531 Z M 449.835938 56.605469 " clip-rule="nonzero"/></clipPath><clipPath id="813bfb7524"><path d="M 449.835938 56.605469 L 561.585938 56.605469 L 561.585938 168.355469 L 449.835938 168.355469 Z M 449.835938 56.605469 " clip-rule="nonzero"/></clipPath><clipPath id="2c07f3ef1c"><path d="M 592.167969 56.605469 L 703.960938 56.605469 L 703.960938 168.394531 L 592.167969 168.394531 Z M 592.167969 56.605469 " clip-rule="nonzero"/></clipPath><clipPath id="7701f8d7ca"><path d="M 592.167969 56.605469 L 703.917969 56.605469 L 703.917969 168.355469 L 592.167969 168.355469 Z M 592.167969 56.605469 " clip-rule="nonzero"/></clipPath><clipPath id="78b64a49d6"><path d="M 734.914062 56.605469 L 846.707031 56.605469 L 846.707031 168.394531 L 734.914062 168.394531 Z M 734.914062 56.605469 " clip-rule="nonzero"/></clipPath><clipPath id="b1a3f07c5b"><path d="M 734.914062 56.605469 L 846.664062 56.605469 L 846.664062 168.355469 L 734.914062 168.355469 Z M 734.914062 56.605469 " clip-rule="nonzero"/></clipPath><clipPath id="27c4dc52d3"><path d="M 877.882812 56.605469 L 989.675781 56.605469 L 989.675781 168.394531 L 877.882812 168.394531 Z M 877.882812 56.605469 " clip-rule="nonzero"/></clipPath><clipPath id="8df043438a"><path d="M 877.882812 56.605469 L 989.632812 56.605469 L 989.632812 168.355469 L 877.882812 168.355469 Z M 877.882812 56.605469 " clip-rule="nonzero"/></clipPath><clipPath id="b9c5ca5b85"><path d="M 1020.210938 56.605469 L 1132.003906 56.605469 L 1132.003906 168.394531 L 1020.210938 168.394531 Z M 1020.210938 56.605469 " clip-rule="nonzero"/></clipPath><clipPath id="fb16460545"><path d="M 1020.210938 56.605469 L 1131.960938 56.605469 L 1131.960938 168.355469 L 1020.210938 168.355469 Z M 1020.210938 56.605469 " clip-rule="nonzero"/></clipPath><clipPath id="4850431da0"><path d="M 1162.960938 56.605469 L 1274.710938 56.605469 L 1274.710938 168.355469 L 1162.960938 168.355469 Z M 1162.960938 56.605469 " clip-rule="nonzero"/></clipPath><clipPath id="fb1a2ba5ac"><path d="M 1305.707031 56.605469 L 1417.457031 56.605469 L 1417.457031 168.355469 L 1305.707031 168.355469 Z M 1305.707031 56.605469 " clip-rule="nonzero"/></clipPath></defs><g clip-path="url(#c0deb1c5ac)"><path fill="#5271ff" d="M 22.5 56.605469 L 134.292969 56.605469 L 134.292969 168.394531 L 22.5 168.394531 Z M 22.5 56.605469 " fill-opacity="1" fill-rule="nonzero"/></g><g clip-path="url(#d0aa2482e0)"><path stroke-linecap="butt" transform="matrix(0.75, 0, 0, 0.75, 22.499999, 56.60365)" fill="none" stroke-linejoin="miter" d="M 0.00000125 0.00242494 L 149.046882 0.00242494 L 149.046882 149.049306 L 0.00000125 149.049306 Z M 0.00000125 0.00242494 " stroke="#000000" stroke-width="14" stroke-opacity="1" stroke-miterlimit="4"/></g><g clip-path="url(#6a9f8d991e)"><path fill="#5271ff" d="M 164.832031 56.605469 L 276.621094 56.605469 L 276.621094 168.394531 L 164.832031 168.394531 Z M 164.832031 56.605469 " fill-opacity="1" fill-rule="nonzero"/></g><g clip-path="url(#4691fc8387)"><path stroke-linecap="butt" transform="matrix(0.75, 0, 0, 0.75, 164.830145, 56.60365)" fill="none" stroke-linejoin="miter" d="M 0.00251482 0.00242494 L 149.049396 0.00242494 L 149.049396 149.049306 L 0.00251482 149.049306 Z M 0.00251482 0.00242494 " stroke="#000000" stroke-width="14" stroke-opacity="1" stroke-miterlimit="4"/></g><g clip-path="url(#d4c60c41a9)"><path fill="#5271ff" d="M 307.578125 56.605469 L 419.371094 56.605469 L 419.371094 168.394531 L 307.578125 168.394531 Z M 307.578125 56.605469 " fill-opacity="1" fill-rule="nonzero"/></g><g clip-path="url(#e4fea7edc4)"><path stroke-linecap="butt" transform="matrix(0.75, 0, 0, 0.75, 307.577301, 56.60365)" fill="none" stroke-linejoin="miter" d="M 0.00109895 0.00242494 L 149.04798 0.00242494 L 149.04798 149.049306 L 0.00109895 149.049306 Z M 0.00109895 0.00242494 " stroke="#000000" stroke-width="14" stroke-opacity="1" stroke-miterlimit="4"/></g><g clip-path="url(#00c889c064)"><path fill="#5271ff" d="M 449.835938 56.605469 L 561.628906 56.605469 L 561.628906 168.394531 L 449.835938 168.394531 Z M 449.835938 56.605469 " fill-opacity="1" fill-rule="nonzero"/></g><g clip-path="url(#813bfb7524)"><path stroke-linecap="butt" transform="matrix(0.75, 0, 0, 0.75, 449.837453, 56.60365)" fill="none" stroke-linejoin="miter" d="M -0.00202101 0.00242494 L 149.04486 0.00242494 L 149.04486 149.049306 L -0.00202101 149.049306 Z M -0.00202101 0.00242494 " stroke="#000000" stroke-width="14" stroke-opacity="1" stroke-miterlimit="4"/></g><g clip-path="url(#2c07f3ef1c)"><path fill="#5271ff" d="M 592.167969 56.605469 L 703.960938 56.605469 L 703.960938 168.394531 L 592.167969 168.394531 Z M 592.167969 56.605469 " fill-opacity="1" fill-rule="nonzero"/></g><g clip-path="url(#7701f8d7ca)"><path stroke-linecap="butt" transform="matrix(0.75, 0, 0, 0.75, 592.167575, 56.60365)" fill="none" stroke-linejoin="miter" d="M 0.000524565 0.00242494 L 149.047406 0.00242494 L 149.047406 149.049306 L 0.000524565 149.049306 Z M 0.000524565 0.00242494 " stroke="#000000" stroke-width="14" stroke-opacity="1" stroke-miterlimit="4"/></g><g clip-path="url(#78b64a49d6)"><path fill="#5271ff" d="M 734.914062 56.605469 L 846.707031 56.605469 L 846.707031 168.394531 L 734.914062 168.394531 Z M 734.914062 56.605469 " fill-opacity="1" fill-rule="nonzero"/></g><g clip-path="url(#b1a3f07c5b)"><path stroke-linecap="butt" transform="matrix(0.75, 0, 0, 0.75, 734.914721, 56.60365)" fill="none" stroke-linejoin="miter" d="M -0.000878505 0.00242494 L 149.046003 0.00242494 L 149.046003 149.049306 L -0.000878505 149.049306 Z M -0.000878505 0.00242494 " stroke="#000000" stroke-width="14" stroke-opacity="1" stroke-miterlimit="4"/></g><g clip-path="url(#27c4dc52d3)"><path fill="#5271ff" d="M 877.882812 56.605469 L 989.675781 56.605469 L 989.675781 168.394531 L 877.882812 168.394531 Z M 877.882812 56.605469 " fill-opacity="1" fill-rule="nonzero"/></g><g clip-path="url(#8df043438a)"><path stroke-linecap="butt" transform="matrix(0.75, 0, 0, 0.75, 877.882811, 56.60365)" fill="none" stroke-linejoin="miter" d="M 0.00000143794 0.00242494 L 149.046883 0.00242494 L 149.046883 149.049306 L 0.00000143794 149.049306 Z M 0.00000143794 0.00242494 " stroke="#000000" stroke-width="14" stroke-opacity="1" stroke-miterlimit="4"/></g><g clip-path="url(#b9c5ca5b85)"><path fill="#5271ff" d="M 1020.210938 56.605469 L 1132.003906 56.605469 L 1132.003906 168.394531 L 1020.210938 168.394531 Z M 1020.210938 56.605469 " fill-opacity="1" fill-rule="nonzero"/></g><g clip-path="url(#fb16460545)"><path stroke-linecap="butt" transform="matrix(0.75, 0, 0, 0.75, 1020.212885, 56.60365)" fill="none" stroke-linejoin="miter" d="M -0.00259732 0.00242494 L 149.044284 0.00242494 L 149.044284 149.049306 L -0.00259732 149.049306 Z M -0.00259732 0.00242494 " stroke="#000000" stroke-width="14" stroke-opacity="1" stroke-miterlimit="4"/></g><g clip-path="url(#4850431da0)"><path stroke-linecap="butt" transform="matrix(0.75, 0, 0, 0.75, 1162.960152, 56.60365)" fill="none" stroke-linejoin="miter" d="M 0.00104794 0.00242494 L 149.047929 0.00242494 L 149.047929 149.049306 L 0.00104794 149.049306 Z M 0.00104794 0.00242494 " stroke="#000000" stroke-width="14" stroke-opacity="1" stroke-miterlimit="4"/></g><g clip-path="url(#fb1a2ba5ac)"><path stroke-linecap="butt" transform="matrix(0.75, 0, 0, 0.75, 1305.707298, 56.60365)" fill="none" stroke-linejoin="miter" d="M -0.000355127 0.00242494 L 149.046526 0.00242494 L 149.046526 149.049306 L -0.000355127 149.049306 Z M -0.000355127 0.00242494 " stroke="#000000" stroke-width="14" stroke-opacity="1" stroke-miterlimit="4"/></g></svg>

<svg xmlns="http://www.w3.org/2000/svg" width="1920" height="300" viewBox="0 0 1440 225"><defs><clipPath id="a"><path d="M22.5 56.605h111.793v111.79H22.5Zm0 0"/></clipPath><clipPath id="b"><path d="M22.5 56.605h111.75v111.75H22.5Zm0 0"/></clipPath><clipPath id="c"><path d="M164.832 56.605h111.79v111.79h-111.79Zm0 0"/></clipPath><clipPath id="d"><path d="M164.832 56.605h111.75v111.75h-111.75Zm0 0"/></clipPath><clipPath id="e"><path d="M307.578 56.605h111.793v111.79H307.578Zm0 0"/></clipPath><clipPath id="f"><path d="M307.578 56.605h111.75v111.75h-111.75Zm0 0"/></clipPath><clipPath id="g"><path d="M449.836 56.605h111.793v111.79H449.836Zm0 0"/></clipPath><clipPath id="h"><path d="M449.836 56.605h111.75v111.75h-111.75Zm0 0"/></clipPath><clipPath id="i"><path d="M592.168 56.605h111.793v111.79H592.168Zm0 0"/></clipPath><clipPath id="j"><path d="M592.168 56.605h111.75v111.75h-111.75Zm0 0"/></clipPath><clipPath id="k"><path d="M734.914 56.605h111.793v111.79H734.914Zm0 0"/></clipPath><clipPath id="l"><path d="M734.914 56.605h111.75v111.75h-111.75Zm0 0"/></clipPath><clipPath id="m"><path d="M877.883 56.605h111.793v111.79H877.883Zm0 0"/></clipPath><clipPath id="n"><path d="M877.883 56.605h111.75v111.75h-111.75Zm0 0"/></clipPath><clipPath id="o"><path d="M1020.21 56.605h111.794v111.79H1020.21Zm0 0"/></clipPath><clipPath id="p"><path d="M1020.21 56.605h111.75v111.75h-111.75Zm0 0"/></clipPath><clipPath id="q"><path d="M1162.96 56.605h111.75v111.75h-111.75Zm0 0"/></clipPath><clipPath id="r"><path d="M1305.707 56.605h111.75v111.75h-111.75Zm0 0"/></clipPath></defs><g clip-path="url(#a)"><path fill="#5271ff" d="M22.5 56.605h111.793v111.79H22.5Zm0 0"/></g><g clip-path="url(#b)"><path fill="none" stroke="#000" stroke-width="10.5" d="M22.5 56.605h111.785v111.786H22.5Zm0 0"/></g><g clip-path="url(#c)"><path fill="#5271ff" d="M164.832 56.605h111.79v111.79h-111.79Zm0 0"/></g><g clip-path="url(#d)"><path fill="none" stroke="#000" stroke-width="10.5" d="M164.832 56.605h111.785v111.786H164.832Zm0 0"/></g><g clip-path="url(#e)"><path fill="#5271ff" d="M307.578 56.605h111.793v111.79H307.578Zm0 0"/></g><g clip-path="url(#f)"><path fill="none" stroke="#000" stroke-width="10.5" d="M307.578 56.605h111.785v111.786H307.578Zm0 0"/></g><g clip-path="url(#g)"><path fill="#5271ff" d="M449.836 56.605h111.793v111.79H449.836Zm0 0"/></g><g clip-path="url(#h)"><path fill="none" stroke="#000" stroke-width="10.5" d="M449.836 56.605H561.62v111.786H449.836Zm0 0"/></g><g clip-path="url(#i)"><path fill="#5271ff" d="M592.168 56.605h111.793v111.79H592.168Zm0 0"/></g><g clip-path="url(#j)"><path fill="none" stroke="#000" stroke-width="10.5" d="M592.168 56.605h111.785v111.786H592.168Zm0 0"/></g><g clip-path="url(#k)"><path fill="#5271ff" d="M734.914 56.605h111.793v111.79H734.914Zm0 0"/></g><g clip-path="url(#l)"><path fill="none" stroke="#000" stroke-width="10.5" d="M734.914 56.605H846.7v111.786H734.914Zm0 0"/></g><g clip-path="url(#m)"><path fill="#5271ff" d="M877.883 56.605h111.793v111.79H877.883Zm0 0"/></g><g clip-path="url(#n)"><path fill="none" stroke="#000" stroke-width="10.5" d="M877.883 56.605h111.785v111.786H877.883Zm0 0"/></g><g clip-path="url(#o)"><path fill="#5271ff" d="M1020.21 56.605h111.794v111.79H1020.21Zm0 0"/></g><g clip-path="url(#p)"><path fill="none" stroke="#000" stroke-width="10.5" d="M1020.21 56.605h111.786v111.786h-111.785Zm0 0"/></g><g clip-path="url(#q)"><path fill="none" stroke="#000" stroke-width="10.5" d="M1162.96 56.605h111.786v111.786h-111.785Zm0 0"/></g><g clip-path="url(#r)"><path fill="none" stroke="#000" stroke-width="10.5" d="M1305.707 56.605h111.785v111.786h-111.785Zm0 0"/></g></svg>
